X:13
T:Charlie Mulvihill's
S:Bernie Waugh
R:Reel
M:4/4
L:1/8
K:D
|:dB|\
"D"AF~FF "C"G2FG|"D"AF~FF "A"EFGE|"D"DEFA "Bm"dfec|"Em"dBAF "A"E2dB|
"D"AF~FF "C"G2FG|"D"AF~FF "A"EFGE|"D"DEFA dfec|"A"dBAF "D"D2:|
|:e2|\
"D"~f2fa "C"~g2fg|"Bm"afdf ecBA|"Gmaj7"~f2fe dfec|"Em"dBAF D2fg|
"F#m"af~ff bf~ff|"D7"afdf edBA|"Gmaj7"~f2fe dfec|"A7"dBAF "D"D2:|

